X: 2129
T: Polonäs, sexdregasamlingen del 2 nr 13
B: Sexdregasamlingen del 2 nr 13
S: efter Anders Larsson
O: Sexdrega, Västergötland
R: Slängpolska
Z: 2011-11-16 av Nils L
M:3/4
L:1/8
K:D
A2 A2 GF | GA B2 c2 | de fd ec | d4 D2 ::
fe fg fg | ab e4 | dc Bc de | cB A4 |
A2 A2 GF | GA B2 c2 | de fd ec | d4 D2 :|
(:musicend:)
(:music:)
